svgs/sharp-solid/person-circle-exclamation.svg

<svg xmlns="http://www.w3.org/2000/svg" viewBox="0 0 576 512"><!--! Font Awesome Pro 6.6.0 by @fontawesome - https://fontawesome.com License - https://fontawesome.com/license (Commercial License) Copyright 2024 Fonticons, Inc. --><path d="M112 48a48 48 0 1 1 96 0 48 48 0 1 1 -96 0zM91.4 128l17.5 0 102.2 0 17.5 0 9.4 14.8 66.4 104c-15.5 16.3-28 35.7-36.3 57l-2.3 1.4-33.8-53L232 480l0 32-64 0 0-32 0-128-16 0 0 128 0 32-64 0 0-32 0-227.8-33.8 53L.2 270.8 82 142.8 91.4 128zM432 224a144 144 0 1 1 0 288 144 144 0 1 1 0-288zm16 224l0-32-32 0 0 32 32 0zm0-176l-32 0 0 16 0 80 0 16 32 0 0-16 0-80 0-16z"/></svg>

<svg xmlns="http://www.w3.org/2000/svg" viewBox="0 0 576 512"><!--! Font Awesome Pro 6.4.0 by @fontawesome - https://fontawesome.com License - https://fontawesome.com/license (Commercial License) Copyright 2023 Fonticons, Inc. --><path d="M112 48a48 48 0 1 1 96 0 48 48 0 1 1 -96 0zM91.4 128h17.5H211.1h17.5l9.4 14.8 66.4 104c-15.5 16.3-28 35.7-36.3 57l-2.3 1.4-33.8-53V480v32H168V480 352H152V480v32H88V480 252.2l-33.8 53L.2 270.8 82 142.8 91.4 128zM432 224a144 144 0 1 1 0 288 144 144 0 1 1 0-288zm16 224V416H416v32h32zm0-176H416v16 80 16h32V368 288 272z"/></svg>
